X:1
T:Title
%%score { 1 | 2 }
L:1/8
M:4/4
K:Ab
V:1 treble nm="Grand Piano"
V:2 bass 
V:1
 z4 z2[Q:1/4=100] [CE]>[CA] | [Ec]2 [Ec]>[DB] [CA]2 [CA]>[CG] | F2 A>A [CE]2 [CA]>[DB] | %3
 [Ec]2 [Ec]>[Ec] [Fd]2 [Ec]>[EA] | B6 E>E | [Ec]2 [Ec]>[DB] [CA]2 [CA]>[CG] | %6
[M:3/4] [DF]2 [DF]>[FB] [Fd]2 |[M:1/4] [Ec]>B |[M:4/4] A2 E>A c2 c>B |[M:3/4] [CA]6 |[M:1/4] G>A | %11
[M:4/4] B2 B>B B2 c>B | [CA]6 [DB]>[Ec] | [Gd]2 [Gd]>[Gd] [Gd]2 [Ge]>[Gd] | [Ac]6 [CE]>[CA] | %15
 [Ec]2 [Ec]>[Ec] [Fd]2 [Ec]>[Ec] | [DB]2 [DF]>[FB] [Fd]2 [Ec]>B | A2 E>A c2 c>B |[M:3/4] [CA]6 |] %19
V:2
 z4 z2 [A,,A,]>[A,,A,] | [A,,A,]2 [A,,A,]>[A,,A,] [A,,A,]2 [A,,A,]>[A,,A,] | %2
 [D,A,D]2 [D,F,D]>[D,F,D] [A,,A,]2 [A,,A,]>[A,,A,] | %3
 [A,,A,]2 [A,,A,]>[A,,A,] [A,,A,]2 [A,,A,]>[C,A,] | [E,G,E]6 [E,G,]>[E,G,D] | %5
 [A,,A,]2 [A,,A,]>[A,,A,] [A,,A,]2 [A,,A,]>[A,,A,] |[M:3/4] [D,A,]2 [D,A,]>[D,F,] [B,,B,]2 | %7
[M:1/4] [C,A,]>[D,F,D] |[M:4/4] [E,A,C]2 [E,A,C]>[E,A,C] [E,A,E]2 [E,G,D]>[E,G,D] | %9
[M:3/4] [A,,A,]6 |[M:1/4] [E,B,D]>[E,A,D] | %11
[M:4/4] [E,G,D]2 [E,G,D]>[E,G,D] [E,G,D]2 [E,A,E]>[E,G,D] | [A,,A,]6 [E,G,]>[E,A,] | %13
 [E,B,]2 [E,B,]>[E,B,] [E,B,]2 [E,B,]>[E,E] | [A,E]6 [A,,A,]>[A,,A,] | %15
 [A,,A,]2 [A,,A,]>[A,,A,] [A,,A,]2 [A,,A,]>[A,,A,] | %16
 [D,F,]2 [D,B,]>[D,B,] [B,,B,]2 [C,A,]>[D,F,D] | [E,C]2 [E,A,C]>[E,A,C] [E,A,E]2 [E,G,D]>[E,G,D] | %18
[M:3/4] [A,,A,]6 |] %19

